X:6
T:Leikkivä makkara
C:Tuuli Kaihola
K:C
M:2/4
L:1/8
!1!CE D2 | DF E2 | CD ED | C2 F2 |
FE DC | FE DC | CD EF | FE D2 | C2 C2 |]
%%text 4.11.2013

